X: 75
T:Miss Thompson's Hornpipe
% Nottingham Music Database
S:via PR
M:4/4
L:1/4
K:D
(3A/2B/2c/2|"D"dd/2f/2 "A7"e/2d/2c/2B/2|"D"AA/2B/2 "A7"A/2G/2F/2E/2|\
"D"D/2F/2A/2F/2 "G"D/2G/2B/2G/2|"D"D/2F/2A/2F/2 "A7"G/2F/2E/2D/2|
"D"dd/2f/2 "A7"e/2d/2c/2B/2|"D"AA/2B/2 "A7"A/2G/2F/2E/2|\
"D"D/2F/2A/2d/2 "A7"f/2e/2d/2c/2|"D"d"A7"d/2c/2 "D"d::
c/2d/2|"A"e/2c/2e/2c/2 A/2c/2e/2c/2|"D"f/2d/2f/2d/2 A/2d/2f/2d/2|\
"G"g/2e/2g/2e/2 "D"f/2d/2f/2d/2|"E7"e/2d/2c/2B/2 "A"AD/2G/2|
"G"B/2G/2B/2G/2 D/2G/2B/2d/2|"D"A/2F/2A/2F/2 D/2F/2A/2d/2|\
"D"F/2A/2d/2e/2 "A7"f/2e/2d/2c/2|"D"d"A7"d/2c/2 "D"d:|<end>
<start>
